X: 69
T: Pirrevals
B:[[Notböcker/Melodier til gamle danske Almuedanse for Violin solo]]
O:Danmark
Z:Søren Bak Vestergaard
M: 2/4
L: 1/8
K: C
!upbow!G|c2 ce|g2fg|a2 af|(.g2 .G2)|c2 ce|g2 ge|gdBd|c2:|\
|:(ef)|g2 fg|a2 af|g2 ge|c2 ef|g2 eg|a2 af|gd BG|c2:|

